docs/svgs/room-recreation.svg

<svg viewBox="0 0 24 24" height="24px" width="24px" fill="#44739e" xmlns="http://www.w3.org/2000/svg"><title>hue:room-recreation</title><desc>Source: https://github.com/arallsopp/hass-hue-icons</desc><path d="M 18.75 16.5 C 19.992188 16.5 21 17.507812 21 18.75 C 21 19.992188 19.992188 21 18.75 21 C 17.507812 21 16.5 19.992188 16.5 18.75 C 16.5 17.507812 17.507812 16.5 18.75 16.5 Z M 19.761719 15.15625 C 19.4375 15.0625 19.101562 15 18.75 15 C 16.683594 15 15 16.683594 15 18.75 C 13.226562 19.140625 11.15625 18.804688 9.503906 17.964844 C 9.074219 17.746094 8.550781 17.828125 8.207031 18.171875 L 5.589844 20.78125 C 5.296875 21.074219 4.820312 21.074219 4.527344 20.78125 L 3.21875 19.476562 C 2.925781 19.183594 2.925781 18.710938 3.21875 18.417969 L 5.839844 15.808594 C 6.175781 15.472656 6.273438 14.957031 6.054688 14.535156 C 4.335938 11.199219 5.15625 6.898438 8.523438 4.484375 C 11.320312 2.480469 14.980469 2.507812 17.753906 4.546875 C 21.261719 7.125 21.917969 11.777344 19.761719 15.15625 Z M 19.761719 15.15625 "/></svg>

<svg viewBox="0 0 24 24" height="24px" width="24px" fill="#44739e" xmlns="http://www.w3.org/2000/svg"><title>hue:room-recreation</title><desc>Source: https://github.com/arallsopp/hass-hue-icons</desc><path d="M18.75,16.5c1.24,0,2.25,1.01,2.25,2.25S19.99,21,18.75,21s-2.25-1.01-2.25-2.25S17.51,16.5,18.75,16.5z M19.76,15.16C19.44,15.06,19.1,15,18.75,15C16.68,15,15,16.68,15,18.75c-1.77,0.39-3.84,0.05-5.5-0.79 c-0.43-0.22-0.95-0.14-1.3,0.21l-2.62,2.61c-0.29,0.29-0.77,0.29-1.06,0l-1.31-1.3c-0.29-0.29-0.29-0.77,0-1.06l2.62-2.61 c0.34-0.34,0.43-0.85,0.21-1.27C4.34,11.2,5.16,6.9,8.52,4.48c2.8-2,6.46-1.98,9.23,0.06C21.26,7.12,21.92,11.78,19.76,15.16z"/></svg>
